img/icon-github-edit-1.svg

<svg fill="none" height="14" viewBox="0 0 15 14" width="15" xmlns="http://www.w3.org/2000/svg" xmlns:xlink="http://www.w3.org/1999/xlink"><clipPath id="a"><path d="m.273438.001953h14v14h-14z"/></clipPath><g clip-path="url(#a)"><path clip-rule="evenodd" d="m11.8989 9.87195v-5.495c-.0263-.6825-.2975-1.28625-.8225-1.8025s-1.12003-.79625-1.80253-.8225h-.875v-1.74999688l-2.625 2.62499688 2.625 2.625v-1.75h.875c.23625.0175.42.09625.60375.27125.18378.175.26248.3675.27128.60375v5.495c-.33315.19185-.59354.48845-.74069.84365-.14716.3551-.17283.7489-.07303 1.1202s.31948.6991.62487.9326c.30535.2335.67935.3596 1.06385.3586.3844.001.7584-.1251 1.0638-.3586s.5251-.5613.6249-.9326.0741-.7651-.0731-1.1202c-.1471-.3552-.4075-.6518-.7406-.84365zm-.875 2.55505c-.5775 0-1.05003-.4813-1.05003-1.05 0-.5688.48123-1.05 1.05003-1.05.5687 0 1.05.4812 1.05 1.05 0 .5687-.4813 1.05-1.05 1.05zm-5.25003-9.80005c0-.97125-.77875-1.749997-1.75-1.749997-.38443-.001016-.75842.125027-1.06382.358527-.30539.2335-.52507.56138-.62487.93263s-.07413.76508.07303 1.12024c.14715.35515.40754.65173.74066.8436v5.74c-.33312.19185-.59351.48845-.74066.84365-.14716.3551-.17283.7489-.07303 1.1202s.31948.6991.62487.9326c.3054.2335.67939.3596 1.06382.3586.38444.001.75843-.1251 1.06383-.3586.30539-.2335.52507-.5613.62487-.9326s.07413-.7651-.07303-1.1202c-.14715-.3552-.40754-.6518-.74067-.84365v-5.74c.51625-.2975.875-.8575.875-1.505zm-.7 8.75005c0 .5775-.48125 1.05-1.05 1.05s-1.05-.4813-1.05-1.05c0-.5688.48125-1.05 1.05-1.05s1.05.4812 1.05 1.05zm-1.05-7.70005c-.5775 0-1.05-.48125-1.05-1.05s.48125-1.05 1.05-1.05 1.05.48125 1.05 1.05-.48125 1.05-1.05 1.05z" fill="#000" fill-rule="evenodd"/></g></svg>

<svg width="15" height="14" viewBox="0 0 15 14" fill="none" xmlns="http://www.w3.org/2000/svg">
<g clip-path="url(#clip0_3527_1186)">
<path fill-rule="evenodd" clip-rule="evenodd" d="M11.8989 9.87195V4.37695C11.8726 3.69445 11.6014 3.0907 11.0764 2.57445C10.5514 2.0582 9.95637 1.7782 9.27387 1.75195H8.39887V0.00195312L5.77387 2.62695L8.39887 5.25195V3.50195H9.27387C9.51012 3.51945 9.69387 3.5982 9.87762 3.7732C10.0614 3.9482 10.1401 4.1407 10.1489 4.37695V9.87195C9.81575 10.0638 9.55536 10.3604 9.40821 10.7156C9.26105 11.0707 9.23538 11.4645 9.33518 11.8358C9.43498 12.2071 9.65466 12.5349 9.96005 12.7684C10.2654 13.0019 10.6394 13.128 11.0239 13.127C11.4083 13.128 11.7823 13.0019 12.0877 12.7684C12.3931 12.5349 12.6128 12.2071 12.7126 11.8358C12.8124 11.4645 12.7867 11.0707 12.6395 10.7156C12.4924 10.3604 12.232 10.0638 11.8989 9.87195ZM11.0239 12.427C10.4464 12.427 9.97387 11.9457 9.97387 11.377C9.97387 10.8082 10.4551 10.327 11.0239 10.327C11.5926 10.327 12.0739 10.8082 12.0739 11.377C12.0739 11.9457 11.5926 12.427 11.0239 12.427ZM5.77387 2.62695C5.77387 1.6557 4.99512 0.876953 4.02387 0.876953C3.63944 0.875937 3.26545 1.00198 2.96005 1.23548C2.65466 1.46898 2.43498 1.79686 2.33518 2.16811C2.23538 2.53936 2.26105 2.93319 2.40821 3.28835C2.55536 3.6435 2.81575 3.94008 3.14887 4.13195V9.87195C2.81575 10.0638 2.55536 10.3604 2.40821 10.7156C2.26105 11.0707 2.23538 11.4645 2.33518 11.8358C2.43498 12.2071 2.65466 12.5349 2.96005 12.7684C3.26545 13.0019 3.63944 13.128 4.02387 13.127C4.40831 13.128 4.7823 13.0019 5.0877 12.7684C5.39309 12.5349 5.61277 12.2071 5.71257 11.8358C5.81237 11.4645 5.7867 11.0707 5.63954 10.7156C5.49239 10.3604 5.232 10.0638 4.89887 9.87195V4.13195C5.41512 3.83445 5.77387 3.27445 5.77387 2.62695ZM5.07387 11.377C5.07387 11.9545 4.59262 12.427 4.02387 12.427C3.45512 12.427 2.97387 11.9457 2.97387 11.377C2.97387 10.8082 3.45512 10.327 4.02387 10.327C4.59262 10.327 5.07387 10.8082 5.07387 11.377ZM4.02387 3.67695C3.44637 3.67695 2.97387 3.1957 2.97387 2.62695C2.97387 2.0582 3.45512 1.57695 4.02387 1.57695C4.59262 1.57695 5.07387 2.0582 5.07387 2.62695C5.07387 3.1957 4.59262 3.67695 4.02387 3.67695Z" fill="black"/>
</g>
<defs>
<clipPath id="clip0_3527_1186">
<rect width="14" height="14" fill="white" transform="translate(0.273438 0.00195312)"/>
</clipPath>
</defs>
</svg>
